X: 4
T: Miss Sarah Drummond Of Perth
R: strathspey
M: 4/4
L: 1/8
K: Gmaj
A2 eA ^cd ef|g2 dg eg dB|A2 eA ^cd ef|[1ge dB A2 A2:|[2ge dB A2 fg||a2 ea ca fa|g2 dg Bg fg|[1a2 ea ca fa|ge dB A4:|[2(3agf (3gfe fd fa|ge dB A4||


Tune 1556	Setting 21193

